src/16/actions/edit-table-delete-column.svg

<svg xmlns="http://www.w3.org/2000/svg" width="16" height="16" viewBox="0 0 16 16">
 <defs>
  <style id="current-color-scheme" type="text/css">
   .ColorScheme-Text { color:#565656; } .ColorScheme-Highlight { color:#5294e2; }
  </style>
 </defs>
 <path style="fill:currentColor" class="ColorScheme-Text" d="M 1 1 L 1 15 L 15 15 L 15 1 L 1 1 z M 3 3 L 5 3 L 5 5 L 3 5 L 3 3 z M 6 3 L 7.28125 3 L 6 4.28125 L 6 3 z M 8.71875 3 L 10 3 L 10 4.28125 L 6 8.28125 L 6 5.71875 L 8.71875 3 z M 11 3 L 13 3 L 13 5 L 11 5 L 11 3 z M 10 5.71875 L 10 8.28125 L 6 12.28125 L 6 9.71875 L 10 5.71875 z M 3 7 L 5 7 L 5 9 L 3 9 L 3 7 z M 11 7 L 13 7 L 13 9 L 11 9 L 11 7 z M 10 9.71875 L 10 13 L 6.71875 13 L 10 9.71875 z M 3 11 L 5 11 L 5 13 L 3 13 L 3 11 z M 11 11 L 13 11 L 13 13 L 11 13 L 11 11 z"/>
</svg>

<svg xmlns="http://www.w3.org/2000/svg" width="16" height="16"><defs><style id="current-color-scheme" type="text/css"></style></defs><path d="M1 1v14h14V1H1zm2 2h2v2H3V3zm3 0h1.281L6 4.281V3zm2.719 0H10v1.281l-4 4V5.72L8.719 3zM11 3h2v2h-2V3zm-1 2.719V8.28l-4 4V9.72l4-4zM3 7h2v2H3V7zm8 0h2v2h-2V7zm-1 2.719V13H6.719L10 9.719zM3 11h2v2H3v-2zm8 0h2v2h-2v-2z" fill="currentColor" color="#565656"/></svg>
